!!!ONR: No. 6
!! From Harold Courlander, "Haiti Singing"
!! Chapel Hill: University of North Carolina Press, 1939
!! Copyright University of North Carolina Press
!!!ENC: D. Huron
**kern
*clefG2
*k[b-e-a-]
*M2/4
=1-
4b-
8a-
8g
=2
4f
8e-
8d
=3
4c
8e-
8g
=4
4f
4a-
=5
4b-
8a-
8g
=6
4f
8e-
8d
=7
4c
8e-
8g
=8
4f
4a-
=9
4b-
8a-
8g
=10
4f
8e-
8d
=11
4c
8e-
8g
=12
4f
4a-
=13
4b-
8a-
8g
=14
4f
8e-
8d
=15
4c
8e-
8g
=16
4f
4a-
=17
8f
8f
8a-
8cc
=18
8dd-
8cc
8cc
(8b-
=19
2cc)
=20
4b-
8a-
8g
=21
4f
8e-
8d
=22
4c
8e-
8g
=23
4f
[4a-
=24
8a-]
8f
8a-
8cc
=25
8dd-
8cc
8cc
8b-
=26
2cc
=27
4b-
8a-
8g
=28
4f
8e-
8d
=29
4c
12e-
12g
12cc
=30
8dd-
8cc
8cc
8b-
=31
2cc
==
*-
